X:255
T:Hornpipe TS.255
M:C|
L:1/8
Q:1/2=90
S:Thomas Sands’ MS,1810,Lincolnshire
R:.hornpipe
O:England;Lincolnshire
Z:vmp.Ruairidh Greig, 2011
K:Bb
(F/E/D/C/)|B,FDF BFdB|fdba gfed|cegf edcB|Af=ef F2(F/E/D/C/)|
B,FDF BFdB|fdba gfed|(3efg ec ABcA|B2B2B2:|
|:AB|cFFF cFeF|dFFF dFfF|eFdF cFBF|(3dcB (3ABG (3FGE (3DEC|
B,FDF BFdB|fdba gfed|(3efg ec AFGA|BFdcB2:|]

